X: 40388
T: Tom John's Rally
R: polka
M: 2/4
K: Gmajor
d2 dd|d/c/d/e/ dc/d/|ed cB|A2 A2|B2 Bc|d/c/d/e/ dg|cB A>G|1 G2 G(3A/B/c/:|2 G2 G2||
A2 AA|B2 BB|ee fe|e^dde|f2 e>g|f2 ef/g/|ag fe|d2 de/f/|
g>a gf|ef ed|ed cB|A2 A2|B/A/B/c/ Bc|d/c/d/e/ dg|cB A>G|G2 G2||

